core/img/filetypes/x-office-spreadsheet.svg

<svg width="16" height="16" version="1.1" viewBox="0 0 16 16" xmlns="http://www.w3.org/2000/svg"><path d="m2.5 1c-0.28 0-0.5 0.22-0.5 0.5v13c0 0.28 0.22 0.5 0.5 0.5h11c0.28 0 0.5-0.22 0.5-0.5v-10.5l-3-3h-8.5zm1.5 3h2v2h-2v-2zm3 0h5v2h-5v-2zm-3 3h2v2h-2v-2zm3 0h5v2h-5v-2zm-3 3h2v2h-2v-2zm3 0h5v2h-5v-2z" fill="#9abd4e"/></svg>

<svg xmlns="http://www.w3.org/2000/svg" width="16" height="16"><path fill="#9abd4e" d="M2.5 1c-.28 0-.5.22-.5.5v13c0 .28.22.5.5.5h11c.28 0 .5-.22.5-.5V4l-3-3H2.5zM4 4h2v2H4V4zm3 0h5v2H7V4zM4 7h2v2H4V7zm3 0h5v2H7V7zm-3 3h2v2H4v-2zm3 0h5v2H7v-2z"/></svg>
